remix/Weather/meteor-line.svg

<svg viewBox="0 0 24 24" fill="currentColor" xmlns="http://www.w3.org/2000/svg"><path d="M21 1V13C21 17.9706 16.9706 22 12 22C7.02944 22 3 17.9706 3 13C3 9.72064 4.75393 6.85093 7.37488 5.27777L14 1.453V4.223L21 1ZM19 4.122L12 7.34567V4.916L8.59717 6.88088C6.47212 8.06588 5.10056 10.2673 5.00531 12.7258L5 13C5 16.866 8.13401 20 12 20C15.7855 20 18.8691 16.9952 18.9959 13.2407L19 13V4.122ZM12 8C14.7614 8 17 10.2386 17 13C17 15.7614 14.7614 18 12 18C9.23858 18 7 15.7614 7 13C7 10.2386 9.23858 8 12 8ZM12 10C10.3431 10 9 11.3431 9 13C9 14.6569 10.3431 16 12 16C13.6569 16 15 14.6569 15 13C15 11.3431 13.6569 10 12 10Z"/></svg>

<svg viewBox="0 0 24 24" xmlns="http://www.w3.org/2000/svg"><path fill="none" d="M0 0h24v24H0Z"/><path d="M21 1v12 0c-.01 4.97-4.04 8.99-9.01 8.99 -4.98-.01-9-4.04-9-9.01 0-3.17 1.66-6.1 4.37-7.72l6.62-3.83V4.2l7-3.223Zm-2 3.122l-7 3.224v-2.43l-3.41 1.96v0c-2.14 1.18-3.5 3.4-3.6 5.84l-.01.27h0c-.01 3.86 3.13 7 6.99 7 3.77 0 6.87-3 6.99-6.77l0-.24V4.09ZM12 8v0c2.76 0 5 2.23 5 5 0 2.76-2.24 5-5 5v0c-2.77 0-5-2.24-5-5 0-2.77 2.23-5 5-5Zm0 2v0c-1.66 0-3 1.34-3 3 0 1.65 1.34 3 3 3v0c1.65 0 3-1.35 3-3 0-1.66-1.35-3-3-3Z"/></svg>
